build/img/quote.svg

<svg width="64" height="48" viewBox="0 0 64 48" fill="none" xmlns="http://www.w3.org/2000/svg">
<g clip-path="url(#clip0)">
<path d="M14.5419 19.1668C13.8306 19.1668 13.148 19.276 12.4686 19.3755C12.6887 18.6307 12.9152 17.873 13.2788 17.1924C13.6424 16.2035 14.2101 15.3463 14.7747 14.4827C15.2467 13.5484 16.0792 12.9159 16.6916 12.1165C17.3327 11.3396 18.2066 10.8227 18.8988 10.1774C19.5781 9.50316 20.468 9.16605 21.1761 8.69089C21.9161 8.26389 22.5604 7.79195 23.2493 7.56721L24.9685 6.85447L26.4803 6.222L24.9334 0L23.0292 0.462314C22.42 0.61642 21.6769 0.796209 20.8316 1.01131C19.9673 1.17184 19.0455 1.61168 18.0185 2.013C17.0042 2.46889 15.8304 2.77711 14.7396 3.5091C13.6424 4.209 12.3762 4.79332 11.2598 5.73079C10.1786 6.69716 8.87403 7.53511 7.91079 8.76474C6.85824 9.91411 5.81845 11.1213 5.0115 12.4954C4.07696 13.8053 3.44224 15.2436 2.77244 16.6658C2.16642 18.0881 1.67842 19.5425 1.27973 20.9551C0.52381 23.7868 0.185718 26.4772 0.0549471 28.7792C-0.0534974 31.0843 0.0102935 33.001 0.144254 34.3879C0.192097 35.0429 0.281405 35.6786 0.345196 36.1184L0.424934 36.6578L0.507862 36.6385C1.07516 39.3059 2.38109 41.7572 4.2746 43.7087C6.1681 45.6602 8.5718 47.0323 11.2076 47.6661C13.8435 48.3 16.6037 48.1698 19.1691 47.2905C21.7345 46.4113 24.0001 44.8189 25.704 42.6977C27.4079 40.5765 28.4803 38.013 28.7972 35.3039C29.1142 32.5948 28.6627 29.8507 27.495 27.3891C26.3273 24.9274 24.4911 22.8489 22.1988 21.3938C19.9066 19.9388 17.2519 19.1667 14.5419 19.1668ZM49.6268 19.1668C48.9155 19.1668 48.233 19.276 47.5536 19.3755C47.7737 18.6307 48.0001 17.873 48.3638 17.1924C48.7274 16.2035 49.2951 15.3463 49.8597 14.4827C50.3317 13.5484 51.1642 12.9159 51.7766 12.1165C52.4177 11.3396 53.2916 10.8227 53.9837 10.1774C54.6631 9.50316 55.553 9.16605 56.2611 8.69089C57.001 8.26389 57.6453 7.79195 58.3343 7.56721L60.0534 6.85447L61.5653 6.222L60.0183 0L58.1142 0.462314C57.505 0.61642 56.7618 0.796209 55.9166 1.01131C55.0522 1.17184 54.1305 1.61168 53.1034 2.013C52.0923 2.4721 50.9154 2.7771 49.8246 3.51232C48.7274 4.21221 47.4611 4.79653 46.3448 5.734C45.2635 6.70037 43.959 7.53832 42.9958 8.76474C41.9432 9.91411 40.9034 11.1213 40.0965 12.4954C39.1619 13.8053 38.5272 15.2436 37.8574 16.6658C37.2514 18.0881 36.7634 19.5425 36.3647 20.9551C35.6088 23.7868 35.2707 26.4772 35.1399 28.7792C35.0315 31.0843 35.0953 33.001 35.2292 34.3879C35.2771 35.0429 35.3664 35.6786 35.4302 36.1184L35.5099 36.6578L35.5928 36.6385C36.1601 39.3059 37.4661 41.7572 39.3596 43.7087C41.2531 45.6602 43.6568 47.0323 46.2926 47.6661C48.9284 48.3 51.6887 48.1698 54.2541 47.2905C56.8194 46.4113 59.0851 44.8189 60.789 42.6977C62.4928 40.5765 63.5653 38.013 63.8822 35.3039C64.1992 32.5948 63.7477 29.8507 62.58 27.3891C61.4123 24.9274 59.5761 22.8489 57.2838 21.3938C54.9915 19.9388 52.3368 19.1667 49.6268 19.1668Z" fill="#E9CF49"/>
</g>
<defs>
<clipPath id="clip0">
<rect width="64" height="48" fill="white"/>
</clipPath>
</defs>
</svg>

<svg width="64" height="48" fill="none" xmlns="http://www.w3.org/2000/svg"><g clip-path="url(#clip0)"><path d="M14.542 19.167c-.711 0-1.394.109-2.073.208.22-.744.446-1.502.81-2.183.363-.989.931-1.846 1.496-2.71.472-.934 1.304-1.566 1.917-2.365.64-.777 1.515-1.294 2.207-1.94.68-.674 1.569-1.01 2.277-1.486.74-.427 1.384-.9 2.073-1.124l1.72-.713 1.511-.632L24.933 0 23.03.462c-.609.154-1.352.334-2.197.55-.865.16-1.787.6-2.814 1.001-1.014.456-2.188.764-3.278 1.496-1.098.7-2.364 1.284-3.48 2.222-1.081.966-2.386 1.804-3.35 3.034-1.052 1.15-2.092 2.356-2.899 3.73-.934 1.31-1.569 2.749-2.239 4.17a35.724 35.724 0 00-1.492 4.29C.524 23.787.186 26.477.055 28.78c-.108 2.305-.045 4.222.09 5.609.047.655.136 1.29.2 1.73l.08.54.083-.02a14.477 14.477 0 003.767 7.07 14.33 14.33 0 006.933 3.958c2.636.634 5.396.504 7.961-.375a14.353 14.353 0 006.535-4.593 14.53 14.53 0 001.791-15.309 14.416 14.416 0 00-5.296-5.995 14.285 14.285 0 00-7.657-2.227zm35.085 0c-.712 0-1.394.109-2.073.208.22-.744.446-1.502.81-2.183.363-.989.931-1.846 1.496-2.71.472-.934 1.304-1.566 1.917-2.365.64-.777 1.515-1.294 2.207-1.94.68-.674 1.569-1.01 2.277-1.486.74-.427 1.384-.9 2.073-1.124l1.72-.713 1.511-.632L60.018 0l-1.904.462c-.609.154-1.352.334-2.197.55-.865.16-1.787.6-2.814 1.001-1.01.46-2.188.764-3.278 1.5-1.098.7-2.364 1.284-3.48 2.221-1.081.966-2.386 1.804-3.35 3.03-1.052 1.15-2.092 2.357-2.898 3.731-.935 1.31-1.57 2.749-2.24 4.17a35.73 35.73 0 00-1.492 4.29c-.756 2.832-1.094 5.522-1.225 7.824-.108 2.305-.045 4.222.09 5.609.047.655.136 1.29.2 1.73l.08.54.083-.02a14.477 14.477 0 003.767 7.07 14.33 14.33 0 006.933 3.958c2.635.634 5.396.504 7.961-.375a14.353 14.353 0 006.535-4.593 14.53 14.53 0 001.791-15.309 14.416 14.416 0 00-5.296-5.995 14.285 14.285 0 00-7.657-2.227z" fill="#E9CF49"/></g><defs><clipPath id="clip0"><path fill="#fff" d="M0 0h64v48H0z"/></clipPath></defs></svg>
